X: 1
T: the High Drive
C: Gordon Duncan
R: reel
Z: 2007 John Chambers <jc:trillian.mit.edu>
S: printed MS from Debby Knight
M: C|
L: 1/8
K: D
|: "D"d3e fedA | "G"~B2gB BAGB | "D"GA~A2 fedf |1,3 "A7"eAce afge :|2 "A7"edc{d}e "D"d4 :|4 "A7"edc{d}e "D"defg ||
|: "D"a3"(#)"g ad~d2 | "G"AB~B2 gBdB | "D"GA~A2 fedf | "A7"eAce afge |
|1 "D"a3"(#)"g ad~d2 | "G"AB~B2 gBdB | "D"GA~A2 fedf | "A7"edc{d}e "D"defg :|
|2 "D"d3e fedA | "G"~B2gB BAGB | "D"GA~A2 fedf | "A7"edc{d}e "D"d4y2 |]
